X:24
T: Graf und Nonne (Die Nonne)
N: Q0155W
O: Osteuropa, Ungarn, Deutsch - Pilsen, Honter Gespannschaft
R: Ballade, Standesunterschied, vergebliche Werbung, Liebe, Klage
M: 4/4
L: 1/8
K: G
D2 | G2F2G2A2 | _B2B2A2
A2 | d2d2c2_B2 | A4z2
_Bc | _B2=F2B2c2 | d4c2
_B2 | A2G2_B2A2 | G4z2
_Bc | _B2=F2B2c2 | d4c2
_B2 | A2G2_B2A2 | G4z2

